X:1
T:Title
%%score 1 2
L:1/8
Q:1/4=100
M:4/4
K:Gb
V:1 treble nm="Strings 1, Soprano"
V:2 bass nm="Strings 1, Bass"
V:1
 z4 z2 [B,D]2 | [B,D]2 [DG]2 [DG]2 [FA]2 | [GB]2 [FA]2 [GB]2[Q:1/4=100] [DG]2[Q:1/4=12] | %3
w: 1.~Let~|world ly~ minds~ the~|world~ pur sue,~ It~|
 [GB]2 [Gd]2 [Gd]2 [GB]2 | [FA]6 [GB]2 | [DG]2 [DG]2 [DA]2 [GB]2 | %6
w: has~ no~ charms~ for~|me;~ Once~|I~ ad mired~ its~|
 [Gc]2 [Gd]2 [Ge]2[Q:1/4=100] [Gd]2[Q:1/4=12][Q:1/4=12] |[Q:1/4=100] [FA]2 [GB]2 [Ac]2 [DF]2 | %8
w: tri fles,~ too,~ But~|grace~ hath~ set~ me~|
 [DG]6 z2 | [Gd]4 [Ge]4 | [Gd]6 [DG]2 | [GB]2 [Gd]2 [Gd]2 [GB]2 | [FA]6 [GB]2 | %13
w: free.~|||||
 [DG]2 [DG]2 [DA]2 [GB]2 | [Gc]2 [Gd]2 [Ge]2[Q:1/4=100] [Gd]2[Q:1/4=12][Q:1/4=12] | %15
w: ||
[Q:1/4=100] [FA]2 [GB]2 [Ac]2 [DF]2 | [DG]6 z2 |] %17
w: ||
V:2
 z4 z2 G,2 | G,2 [G,B,]2 [G,B,]2 [D,D]2 | [G,D]2 [G,D]2 [G,D]2 [G,B,]2 | %3
 [G,D]2 [G,B,]2 [B,D]2 [G,D]2 | [D,D]6 [G,D]2 | [G,B,]2 [G,B,]2 [F,C]2 [_F,D]2 | %6
 [E,C]2 [D,B,]2 [C,C]2 [B,,D]2 | [D,D]2 [D,D]2 [D,D]2 [D,C]2 | [G,,G,B,]6 z2 | [G,B,]4 [C,C]4 | %10
 [G,B,]6 [G,B,]2 | [G,D]2 [G,B,]2 [B,D]2 [G,D]2 | [D,D]6 [G,D]2 | [G,B,]2 [G,B,]2 [F,C]2 [_F,D]2 | %14
 [E,C]2 [D,B,]2 [C,C]2 [B,,D]2 | [D,D]2 [D,D]2 [D,D]2 [D,C]2 | [G,,G,B,]6 z2 |] %17

